X: 33022
T: Price Of My Pig, The
R: jig
M: 6/8
K: Aminor
|:EAA AGA|~B3 GAB|cBA BAG|A2A GED|
E2A AGA|~B3 GAB|c2A BAG|1 A3 A2G:|2 A3 AB/c/d||
e3 d3|cBA ~B3|c2c BAG|A2A GED|
E2A AGA|~B3 GAB|cBA BAG|A2A AB/c/d|
edB d3|cBA ~B3|c2c BAG|A2A GED|
E2A AGA|B/c/dB ~G3|cBA BAG|A3 A2G||

